www/assets/icons/airline_seat_legroom_reduced.svg

<svg width="24" height="24" viewBox="0 0 24 24" xmlns="http://www.w3.org/2000/svg" fill='currentColor'><path d="M20.4712 19.2C20.6512 20.16 19.9212 21 19.0012 21H14.5012V18L15.5012 14H9.50122C7.85122 14 6.50122 12.65 6.50122 11V3H12.5012V9H17.5012C18.6012 9 19.5012 9.9 19.5012 11L17.5012 18H18.9412C19.6712 18 20.3312 18.49 20.4712 19.2ZM5.50122 12V3H3.50122V12C3.50122 14.76 5.74122 17 8.50122 17H12.5012V15H8.50122C6.84122 15 5.50122 13.66 5.50122 12Z"/></svg>

<svg xmlns="http://www.w3.org/2000/svg" width="24" height="24" viewBox="0 0 24 24" fill='currentColor'><path d="M20.471 19.2c.18.96-.55 1.8-1.47 1.8h-4.5v-3l1-4h-6c-1.65 0-3-1.35-3-3V3h6v6h5c1.1 0 2 .9 2 2l-2 7h1.44c.73 0 1.39.49 1.53 1.2M5.501 12V3h-2v9c0 2.76 2.24 5 5 5h4v-2h-4c-1.66 0-3-1.34-3-3"/></svg>
